!!!COM: Corelli, Arcangelo
!!!OTL: Sonate a tre [in c]
!!!XEN: Trio Sonata Opus 1, No. 8
!!!OPS: Opus 1
!!!ONM: No. 8
!!!OMV: Movement 3.
!!!YEC: Copyright 1994, Center for Computer Assisted Research in the Humanities
!!!YEM: Rights to all derivative electronic formats reserved.
!!!YEM: Refer to licensing agreement for further details.
!! For the following instrumentation: Violino I & II, Violone/Archlute,
!!    and Organo.
!! Largo.
**kern	**kern	**kern	**kern
*ICklav	*ICstr	*ICstr	*ICstr
*Iorgan	*Icello	*Ivioln	*Ivioln
*	*Iarchl	*	*
!Organo	!Violone	!Violin 2	!Violin 1
!	! or	!	!
!	!Archlute	!	!
*clefF4	*clefF4	*clefG2	*clefG2
*k[b-e-]	*k[b-e-]	*k[b-e-]	*k[b-e-]
*c:	*c:	*c:	*c:
*M4/4	*M4/4	*M4/4	*M4/4
*MM42	*MM42	*MM42	*MM42
=1-	=1-	=1-	=1-
4C/	1r	1r	2cc\
8c\L	.	.	.
8B-\J	.	.	.
4A-\	.	.	2ee-\
[4c\	.	.	.
=2	=2	=2	=2
4c\]	1r	2r	8dd\L
.	.	.	8g\J
8B-\L	.	.	4gg\
8G\J	.	.	.
4A-\	.	4r	4cc\
8E-\L	.	8r	[4ccc\
8C\J	.	8cc\	.
=3	=3	=3	=3
4G\	1r	8dd\L	4ccc\]
.	.	8ee-\	.
4GG/	.	8ff\	4bb\
.	.	8gg\J	.
4.C/	.	8ee-\L	4ccc\
.	.	8cc\J	.
.	.	[4aa-\	8r
8A-\	.	.	8ff\
=4	=4	=4	=4
4.B-\	1r	8aa-\L]	8dd\
.	.	8dd\J	4b-\
.	.	[4gg\	.
8G\	.	.	8ee-\
4.A-\	.	8gg\L]	8cc\
.	.	8cc\J	4a-/
.	.	[4ff\	.
8F\	.	.	8dd\
=5	=5	=5	=5
2G\	4r	4ff\]	8b/L
.	.	.	8g/J
.	8r	4ee-\	2cc\
.	8C/	.	.
2GG/	8D\L	2dd\	.
.	8E-\	.	.
.	8F\	.	4b\
.	8G\J	.	.
=6	=6	=6	=6
4C/	8E-\L	4cc\	4.cc\
.	8C\J	.	.
4c\	4c\	[4aa-\	.
.	.	.	8ee-\
2B-\	2B-\	8aa-\L]	4.dd\
.	.	16bb-\L	.
.	.	16aa-\JJ	.
.	.	[4gg\	.
.	.	.	(16ee-\LL
.	.	.	16dd\JJ)
=7	=7	=7	=7
2A-\	2A-\	8gg\L]	4.cc\
.	.	(16aa-\L	.
.	.	16gg\JJ)	.
.	.	4ff\	.
.	.	.	(16dd\LL
.	.	.	16cc\JJ)
4G\	2G\	4gg\	8b\L
.	.	.	8dd\J
4GG/	.	4bb-\	[4gg\
=8	=8	=8	=8
4D\	4D\	8aa\L	4gg\]
.	.	8dd\J	.
4BB/	4BB/	4ddd\	4ff\
2C/	4C/	4gg\	4ee-\
.	4E-\	[4ccc\	4cc\
=9	=9	=9	=9
2GG/	8D/L	4ccc\]	4.dd\
.	8GG/J	.	.
.	4G\	2bb-\	.
.	.	.	8gg\
4C/	4C/	.	8ee-\L
.	.	.	8cc\J
8F\L	8F\L	[4aa-\	4ccc\
8E-\J	8E-\J	.	.
=10	=10	=10	=10
8D\L	8D\L	4aa-\]	2bb-\
8BB-\	8BB-\	.	.
8E-\	8E-\	2gg\	.
8D\J	8D\J	.	.
4C/	4C/	.	2aa-\
4D\	4D\	[4ff\	.
=11	=11	=11	=11
4E-\	4E-\	4ff\]	4.gg\
2C/	2C/	4ee-\	.
.	.	.	8aa\
.	.	4dd\	8ff#\L
.	.	.	8dd\J
8BB-/L	8BB-/L	8r	[4gg\
8E-/J	8E-/J	8g/	.
=12	=12	=12	=12
4D\	4D\	8a\L	4gg\]
.	.	8b-\	.
4DD/	4DD/	8cc\	4ff#\
.	.	8dd\J	.
4GG/	4GG/	8b-/L	4gg\
.	.	8g/J	.
8AA-\L	8AA-\L	[4cc\	8r
8A-\J	8A-\J	.	8cc\
=13	=13	=13	=13
4G\	4G\	4cc\]	8dd\L
.	.	.	8ee-\
4GG/	4GG/	4b\	8ff\
.	.	.	8gg\J
4.C/	4.C/	4cc\	8ee-\L
.	.	.	8cc\J
.	.	[4ccc\	8r
8C/	8C/	.	8aa-\
=14	=14	=14	=14
4.D\	4.D\	8ccc\L]	8ff\
.	.	8ff\J	4dd\
.	.	[4bb-\	.
8BB-/	8BB-/	.	8gg\
4.C/	4.C/	8bb-\L]	8ee-\
.	.	8ee-\J	4cc\
.	.	[4aa-\	.
8AA-/	8AA-/	.	8ff\
=15	=15	=15	=15
4.BB-/	4.BB-/	4aa-\]	8dd\
.	.	.	4b-\
.	.	4gg\	.
8G\	8G\	.	8ee-\
4F\	4F\	8aa-\L	8cc\L
.	.	8bb-\J	8dd\J
4E-\	4E-\	8.gg\L	8.ee-\L
.	.	16gg\Jk	16ee-\Jk
=16	=16	=16	=16
4B-\	4B-\	2ff\	4ee-\
4BB-/	4BB-/	.	4dd\
2E-\	2E-\	4e-/	2ee-\
.	.	4g/	.
=17	=17	=17	=17
4D\	4D\	8f/L	4b-\
.	.	8B-/J	.
4BB-/	4BB-/	4r	4dd\
4AA-/	4AA-/	4f/	8cc/L
.	.	.	8f/J
4F\	4F\	4a-/	4r
=18	=18	=18	=18
4E-\	4E-\	8g/L	4cc\
.	.	8c/J	.
4C/	4C/	4r	4ee-\
4G\	4G\	4g/	8dd\L
.	.	.	8g\J
4GG/	4GG/	4b-\	[4gg\
=19	=19	=19	=19
4D\	2D\	8a/L	4gg\]
.	.	8d/J	.
4BB/	.	2dd\	4ff\
2C/	2r	.	2ee-\
.	.	[4cc\	.
=20	=20	=20	=20
2GG/	4r	4cc\]	4dd\
.	8r	4b-\	2gg\
.	8G\	.	.
2D\	8A\L	2a/	.
.	8B-\	.	.
.	8c\	.	4ff#\
.	8d\J	.	.
=21	=21	=21	=21
4.G\	8B-\	8g\L	4.gg\
.	4G\	8dd\J	.
.	.	[4gg\	.
8e-\	8e-\	.	8bb-\
8c\	8c\	8gg\L]	4.aa-\
4A-\	4A-\	8cc\J	.
.	.	[4ff\	.
8F\	8d\	.	16bb-\LL
.	.	.	16aa-\JJ
=22	=22	=22	=22
8B-\	8B-\	8ff\L]	4.gg\
4G\	4G\	8b-\J	.
.	.	[4ee-\	.
8c\	8c\	.	(16aa-\LL
.	.	.	16gg\JJ)
8A-\	8A-\	8ee-\L]	4.ff\
4F\	4F\	(16dd\L	.
.	.	16cc\JJ)	.
.	.	[4dd\	.
8B-\	8B-\	.	(16gg\LL
.	.	.	16ff\JJ)
=23	=23	=23	=23
8G\	8G\	8dd\L]	4.ee-\
4E-\	4E-\	8g\J	.
.	.	2cc\	.
8A-\	8A-\	.	(16ff\LL
.	.	.	16ee-\JJ)
8F\L	8F\L	.	8dd\L
16E-\L	16E-\L	.	8ee-\J
16D\JJ	16D\JJ	.	.
8G/L	8G/L	4b\	8.dd\L
8GG/J	8GG/J	.	.
.	.	.	16dd\Jk
=24	=24	=24	=24
2C/	2C/	2cc\	4cc\
.	.	.	4ee-\
4BB/	2r	4g/	8dd\L
.	.	.	8g\J
4GG/	.	4b-\	[4gg\
=25	=25	=25	=25
4D\	2r	8a/L	4gg\]
.	.	8d/J	.
4BB/	.	[4dd\	4ff\
2C/	4r	8dd\L]	2ee-\
.	.	8g\J	.
.	8r	[4cc\	.
.	8C/	.	.
=26	=26	=26	=26
2GG/	8D\L	4cc\]	2dd\
.	8E-\	.	.
.	8F\	4b\	.
.	8G\J	.	.
!! Adagio.
*MM32	*MM32	*MM32	*MM32
4C/	8E-\L	4cc\	4cc\
.	8C\J	.	.
4F\	4F\	4a-/	[4cc\
=27	=27	=27	=27
4G\	4G\	2d/	4cc\]
4GG/	4GG/	.	4b\
2C/	2C/	2c/	2cc\
==	==	==	==
*-	*-	*-	*-
!!!CDT: 1653/2/17/-1713/1/8
!!!OCY: Italia
!!!ODE: Queen Christina Alexandra of Sweden
!!!ODT: 1681//
!!!OPC: Roma; Rome
!!!AGN: trio sonata
!!!AST: baroque, chamber
!!!AMT: simple quadruple
!!!YOR1: J. Joachim & F. Chrysander (eds.) Les Oeuvre de Arcangelo Corelli
!!!YOR2: London: Augener & Co. 1871
!!!YOY: 1871
!!!AIN: archl cello organ violn
!!!EEV: 1.1
!!!RDT: 1993 August 31
!!!YER: 1994 December 14
!!!EMD: 1996 July 9
!!!YEN: United States of America
!!!EFL: 3/4
!!!ENC: Frances Bennion & Steven Rasmussen
!!!EED: W.B. Hewlett
!!!VTS: 4108874996
